.icons/Gruvbox-Plus-Dark/apps/16/upwork.svg

<svg width="16" height="16" version="1.1" xmlns="http://www.w3.org/2000/svg">
  <defs>
    <style type="text/css" id="current-color-scheme">.ColorScheme-Text { color:#ebdbb2; } .ColorScheme-Highlight { color:#458588; }</style>
  </defs>
  <path class="ColorScheme-Text" fill="currentColor" d="m0 2.545v5.383c0 0.6972 1.001 2.617 3.273 2.617 2.266 0 3.272-1.913 3.272-2.617v-2c0.3664 0.4826 0.8043 0.8956 1.246 1.307-4e-3 0.021-0.011 0.04-0.015 0.061-0.492 2.466-0.503 5.624-0.503 6.159h2.182c0-0.36 0.155-2.171 0.342-3.777 0.603 0.452 1.203 0.834 2.014 0.866 1.252 0.049 2.358-0.425 3.088-1.19s1.101-1.78 1.101-2.809c0-2.185-1.815-4-4-4-2.597 0.032-2.803 1.807-3.486 2.329-0.914-1.001-1.655-1.944-1.969-2.329h-2.181c-2.316e-4 0.1273 0 4.099 0 5.165-0.191 0.5458-0.7097 0.654-1.091 0.654-0.7845 0-1.022-0.4422-1.091-0.654v-5.165zm12 2.182c0.869 0 1.818 0.949 1.818 1.818 0 0.499-0.185 0.976-0.497 1.303s-0.732 0.544-1.423 0.517c-0.6316-0.231-1.115-0.6685-1.604-1.104 0.181-0.597 0.331-1.277 0.568-1.67 0.397-0.656 0.696-0.864 1.138-0.864z"/>
</svg>

<svg xmlns="http://www.w3.org/2000/svg" style="isolation:isolate" width="16" height="16" viewBox="0 0 16 16">
 <defs>
  <style id="current-color-scheme" type="text/css">
   .ColorScheme-Text { color:#ebdbb2; } .ColorScheme-Highlight { color:#458588; }
  </style>
  <linearGradient id="arrongin" x1="0%" x2="0%" y1="0%" y2="100%">
   <stop offset="0%" style="stop-color:#d79921; stop-opacity:1"/>
   <stop offset="100%" style="stop-color:#b57614; stop-opacity:1"/>
  </linearGradient>
  <linearGradient id="aurora" x1="0%" x2="0%" y1="0%" y2="100%">
   <stop offset="0%" style="stop-color:#83a598; stop-opacity:1"/>
   <stop offset="100%" style="stop-color:#b16286; stop-opacity:1"/>
  </linearGradient>
  <linearGradient id="fitdance" x1="0%" x2="0%" y1="0%" y2="100%">
   <stop offset="0%" style="stop-color:#8ec07c; stop-opacity:1"/>
   <stop offset="100%" style="stop-color:#458588; stop-opacity:1"/>
  </linearGradient>
  <linearGradient id="oomox" x1="0%" x2="0%" y1="0%" y2="100%">
   <stop offset="0%" style="stop-color:#458588; stop-opacity:1"/>
   <stop offset="100%" style="stop-color:#928374; stop-opacity:1"/>
  </linearGradient>
  <linearGradient id="rainblue" x1="0%" x2="0%" y1="0%" y2="100%">
   <stop offset="0%" style="stop-color:#b8bb26; stop-opacity:1"/>
   <stop offset="100%" style="stop-color:#076678; stop-opacity:1"/>
  </linearGradient>
  <linearGradient id="sunrise" x1="0%" x2="0%" y1="0%" y2="100%">
   <stop offset="0%" style="stop-color: #fe8019; stop-opacity:1"/>
   <stop offset="100%" style="stop-color: #fabd2f; stop-opacity:1"/>
  </linearGradient>
  <linearGradient id="telinkrin" x1="0%" x2="0%" y1="0%" y2="100%">
   <stop offset="0%" style="stop-color: #83a598; stop-opacity:1"/>
   <stop offset="100%" style="stop-color: #83a598; stop-opacity:1"/>
  </linearGradient>
  <linearGradient id="60spsycho" x1="0%" x2="0%" y1="0%" y2="100%">
   <stop offset="0%" style="stop-color: #fb4934; stop-opacity:1"/>
   <stop offset="25%" style="stop-color: #fabd2f; stop-opacity:1"/>
   <stop offset="50%" style="stop-color: #fe8019; stop-opacity:1"/>
   <stop offset="100%" style="stop-color: #689d6a; stop-opacity:1"/>
  </linearGradient>
  <linearGradient id="90ssummer" x1="0%" x2="0%" y1="0%" y2="100%">
   <stop offset="0%" style="stop-color: #b16286; stop-opacity:1"/>
   <stop offset="20%" style="stop-color: #8ec07c; stop-opacity:1"/>
   <stop offset="50%" style="stop-color: #fabd2f; stop-opacity:1"/>
   <stop offset="100%" style="stop-color: #458588; stop-opacity:1"/>
  </linearGradient>
  <linearGradient id="cyberneon" x1="0%" x2="0%" y1="0%" y2="100%">
    <stop offset="0" style="stop-color:#83a598; stop-opacity:1"/>
    <stop offset="1" style="stop-color:#b16286; stop-opacity:1"/>
  </linearGradient>
 </defs>
 <path style="fill:currentColor" class="ColorScheme-Text" fill-rule="evenodd" d="M 0 2.545 L 0 7.928 C 0 8.021 0.012 8.113 0.036 8.203 C 0.036 8.203 0.198 8.824 0.68 9.395 C 1.163 9.966 2.07 10.545 3.273 10.545 C 4.475 10.545 5.383 9.966 5.865 9.395 C 6.347 8.824 6.51 8.203 6.51 8.203 C 6.534 8.113 6.545 8.021 6.545 7.928 L 6.545 5.928 C 6.83 6.251 6.808 6.266 7.131 6.61 C 7.338 6.831 7.574 7.016 7.791 7.235 C 7.787 7.256 7.78 7.275 7.776 7.296 C 7.284 9.762 7.273 12.92 7.273 13.455 L 9.455 13.455 C 9.455 13.095 9.61 11.284 9.797 9.678 C 10.4 10.13 11 10.512 11.811 10.544 C 13.063 10.593 14.169 10.119 14.899 9.354 C 15.629 8.589 16 7.574 16 6.545 C 16 4.36 14.185 2.545 12 2.545 C 9.403 2.577 9.197 4.352 8.514 4.874 C 7.6 3.873 6.859 2.93 6.545 2.545 L 4.364 2.545 C 4.364 2.545 4.363 3.054 4.364 3.636 L 4.364 7.71 C 4.35 7.75 4.333 7.829 4.199 7.987 C 4.036 8.18 3.852 8.364 3.273 8.364 C 2.694 8.364 2.51 8.18 2.347 7.987 C 2.213 7.829 2.195 7.75 2.182 7.71 L 2.182 2.545 L 0 2.545 Z M 12 4.727 C 12.869 4.727 13.818 5.676 13.818 6.545 C 13.818 7.044 13.633 7.521 13.321 7.848 C 13.009 8.175 12.589 8.392 11.898 8.365 C 11.932 8.366 11.335 8.153 10.713 7.659 C 10.582 7.555 10.432 7.381 10.294 7.261 C 10.475 6.664 10.625 5.984 10.862 5.591 C 11.259 4.935 11.558 4.727 12 4.727 Z"/>
</svg>
